src/looks/crispClean.pp3
[Version]
AppVersion=5.12
Version=352

[Exposure]
Contrast=16

[Vibrance]
Enabled=true
Pastels=14
Saturated=6
ProtectSkins=true

[Sharpening]
Enabled=true
Method=usm
Amount=140
