src/looks/tealOrange.pp3
[Version]
AppVersion=5.12
Version=352

[Exposure]
Contrast=28

[Vibrance]
Enabled=true
Pastels=12
Saturated=6
ProtectSkins=true

[ColorToning]
Enabled=true
Method=Splitco
Redlow=0
Greenlow=10
Bluelow=30
Redmed=0
Greenmed=0
Bluemed=0
Redhigh=30
Greenhigh=10
Bluehigh=0
Balance=0
