src/looks/vintageFade.pp3
[Version]
AppVersion=5.12
Version=352

[Exposure]
Contrast=-18
ShadowCompr=78

[White Balance]
Enabled=true
Setting=Custom
Temperature=7100
Green=0.97

[Vibrance]
Enabled=true
Pastels=-28
Saturated=-14
ProtectSkins=true

[ColorToning]
Enabled=true
Method=Splitco
Redlow=14
Greenlow=10
Bluelow=0
Redmed=0
Greenmed=0
Bluemed=0
Redhigh=10
Greenhigh=8
Bluehigh=0
Balance=0
